svg/medicines_positive.svg

<svg width="48" height="48" viewBox="0 0 48 48" fill="none" xmlns="http://www.w3.org/2000/svg">
<path fill-rule="evenodd" clip-rule="evenodd" d="M27.8666 4.05861C25.9596 4.05471 24.4616 4.62801 23.7106 5.80269C22.2246 8.13876 24.1336 12.1519 28.1405 15.5139C29.7135 16.8919 29.7945 16.9079 30.9255 15.1369L35.2555 8.35936C36.4414 6.57058 35.9875 6.54238 34.4765 5.77539C32.0905 4.64341 29.7735 4.06251 27.8666 4.05861ZM8.72879 4.06051C7.9594 4.08391 7.18661 4.33111 6.51202 4.8164L5.70153 5.4004C3.90275 6.69458 3.49516 9.18355 4.78944 10.9819L7.12531 14.2299L9.46318 17.4768L9.86748 17.1858L14.5412 23.6778C15.8352 25.4767 18.3242 25.8837 20.1231 24.5898C21.9221 23.2958 22.3271 20.8048 21.0331 19.0058L16.3612 12.5119L16.7682 12.2209L14.4322 8.97265L12.0962 5.72659C11.2873 4.60231 10.0113 4.02171 8.72879 4.06051ZM37.4704 7.72657C37.1204 7.76207 36.8234 8.17866 36.2724 9.04095L31.9155 15.8669C30.7105 17.7488 31.2145 17.7218 32.7515 18.4978C37.4984 20.7308 41.9544 20.7778 43.4484 18.4388C44.9393 16.0969 43.0164 12.0699 38.9874 8.70306C38.2214 8.03726 37.8194 7.69097 37.4704 7.72657ZM15.1987 13.3479L15.7887 14.1679L16.8277 15.6109L17.5937 16.6759L18.7887 18.3378L19.8277 19.7808C20.6586 20.9358 20.3966 22.5338 19.2417 23.3648C18.0867 24.1958 16.4887 23.9358 15.6577 22.7808L14.6187 21.3378L13.4237 19.6758L12.6577 18.6108L12.3867 18.2338L11.6188 17.1678L11.0288 16.3499L12.7087 15.1409L13.5207 14.5569L15.1987 13.3479ZM34.7225 25.0058C33.0615 24.9558 31.3695 25.3387 29.8175 26.2007C25.6766 28.5127 23.9126 33.4796 25.5466 37.8296C25.8616 38.7326 26.3176 38.4856 26.7376 38.2516L41.6964 29.9277C42.1124 29.6957 42.4284 29.3247 41.9444 28.6617C40.1654 26.3767 37.4894 25.0888 34.7225 25.0058ZM17.7637 27.3067C17.6277 27.3127 17.4957 27.3407 17.3727 27.3957L5.12084 32.9687C4.10735 33.4296 3.62436 35.6126 4.45684 36.2866L13.7677 43.8195C14.5077 44.4185 16.5417 43.4945 16.7617 42.4975L19.6617 29.3357C19.7857 28.7727 19.4587 28.1767 18.9787 27.7767C18.6177 27.4777 18.1717 27.2877 17.7637 27.3067ZM42.7884 30.5487C42.5734 30.5267 42.3404 30.6567 42.1064 30.7867L27.2206 39.0696C26.7816 39.3136 26.4456 39.6606 26.9376 40.3356C29.7825 44.0035 34.9335 45.1125 39.0754 42.8105C43.2044 40.5056 44.9713 35.5606 43.3624 31.2207C43.2004 30.7437 43.0034 30.5707 42.7884 30.5487Z" fill="#333333"/>
</svg>

<?xml version="1.0" encoding="UTF-8" standalone="no"?>
<!-- Created with Inkscape (http://www.inkscape.org/) -->
<svg id="svg8" xmlns:rdf="http://www.w3.org/1999/02/22-rdf-syntax-ns#" xmlns="http://www.w3.org/2000/svg" xmlns:osb="http://www.openswatchbook.org/uri/2009/osb" height="48" width="48" version="1.1" xmlns:cc="http://creativecommons.org/ns#" viewBox="0 0 12.7 12.7" xmlns:dc="http://purl.org/dc/elements/1.1/">
 <title id="title4753">UIO-icon</title>
 <metadata id="metadata5">
  <rdf:RDF>
   <cc:Work rdf:about="">
    <dc:format>image/svg+xml</dc:format>
    <dc:type rdf:resource="http://purl.org/dc/dcmitype/StillImage"/>
    <dc:title>UIO-icon</dc:title>
    <dc:creator>
     <cc:Agent>
      <dc:title>Joaquín Urbano</dc:title>
     </cc:Agent>
    </dc:creator>
    <dc:rights>
     <cc:Agent>
      <dc:title>GPL</dc:title>
     </cc:Agent>
    </dc:rights>
   </cc:Work>
  </rdf:RDF>
 </metadata>
 <g id="layer1" transform="translate(0,-284.3)" fill="#333">
  <path id="path878" d="m27.867 4.0586c-1.907-0.0039-3.405 0.5694-4.156 1.7441-1.486 2.3361 0.423 6.3493 4.43 9.7113 1.573 1.378 1.654 1.394 2.785-0.377l4.33-6.7776c1.186-1.7888 0.732-1.817-0.779-2.584-2.386-1.132-4.703-1.7129-6.61-1.7168zm-19.138 0.0019c-0.7694 0.0234-1.5422 0.2706-2.2168 0.7559l-0.8105 0.584c-1.7988 1.2942-2.2064 3.7832-0.9121 5.5816l2.3359 3.248 2.3379 3.247 0.4043-0.291 4.6738 6.492c1.294 1.799 3.783 2.206 5.582 0.912s2.204-3.785 0.91-5.584l-4.672-6.494 0.407-0.291-2.336-3.2483-2.336-3.2461c-0.809-1.1243-2.085-1.7049-3.3675-1.6661zm28.742 3.6661c-0.35 0.0355-0.647 0.4521-1.198 1.3144l-4.357 6.826c-1.205 1.882-0.701 1.855 0.836 2.631 4.747 2.233 9.203 2.28 10.697-0.059 1.491-2.342-0.432-6.369-4.461-9.7359-0.766-0.6658-1.168-1.0121-1.517-0.9765zm-22.272 5.6214l0.59 0.82 1.039 1.443 0.766 1.065 1.195 1.662 1.039 1.443c0.831 1.155 0.569 2.753-0.586 3.584s-2.753 0.571-3.584-0.584l-1.039-1.443-1.195-1.662-0.766-1.065-0.271-0.377-0.768-1.066-0.59-0.818 1.68-1.209 0.812-0.584 1.678-1.209zm19.524 11.658c-1.661-0.05-3.353 0.333-4.905 1.195-4.141 2.312-5.905 7.279-4.271 11.629 0.315 0.903 0.771 0.656 1.191 0.422l14.959-8.324c0.416-0.232 0.732-0.603 0.248-1.266-1.779-2.285-4.455-3.573-7.222-3.656zm-16.959 2.301c-0.136 0.006-0.268 0.034-0.391 0.089l-12.252 5.573c-1.0135 0.461-1.4965 2.644-0.664 3.318l9.311 7.533c0.74 0.599 2.774-0.325 2.994-1.322l2.9-13.162c0.124-0.563-0.203-1.159-0.683-1.559-0.361-0.299-0.807-0.489-1.215-0.47zm25.025 3.242c-0.215-0.022-0.448 0.108-0.682 0.238l-14.886 8.283c-0.439 0.244-0.775 0.591-0.283 1.266 2.845 3.668 7.996 4.777 12.138 2.475 4.129-2.305 5.896-7.25 4.287-11.59-0.162-0.477-0.359-0.65-0.574-0.672z" fill-rule="evenodd" transform="matrix(.26458 0 0 .26458 0 284.3)"/>
 </g>
</svg>
